icons/folder-television.svg

<svg xmlns="http://www.w3.org/2000/svg" viewBox="0 0 32 32"><path fill="#fbc02d" d="m13.844 7.536-1.288-1.072A2 2 0 0 0 11.276 6H4a2 2 0 0 0-2 2v16a2 2 0 0 0 2 2h24a2 2 0 0 0 2-2V10a2 2 0 0 0-2-2H15.124a2 2 0 0 1-1.28-.464Z"/><path fill="#fff9c4" d="M30 12H14a2 2 0 0 0-2 2v10a2 2 0 0 0 2 2h4v2h8v-2h4a2 2 0 0 0 2-2V14a2 2 0 0 0-2-2Zm0 12H14V14h16Z"/></svg>

<svg xmlns="http://www.w3.org/2000/svg" viewBox="0 0 32 32"><path d="M13.84376,7.53645l-1.28749-1.0729A2,2,0,0,0,11.27591,6H4A2,2,0,0,0,2,8V24a2,2,0,0,0,2,2H28a2,2,0,0,0,2-2V10a2,2,0,0,0-2-2H15.12412A2,2,0,0,1,13.84376,7.53645Z" style="fill:#fbc02d"/><path d="M30,12H14a2,2,0,0,0-2,2V24a2,2,0,0,0,2,2h4v2h8V26h4a2,2,0,0,0,2-2V14A2,2,0,0,0,30,12Zm0,12H14V14H30Z" style="fill:#fff9c4"/></svg>
